!!!!SEGMENT: pl-sa--153-a-iv-3--006_anonim--msza-agnus.krn
!!!cenid: 17xx:1530
!!!COM: Anonim
!!!COM-rismID: pe30004985
!!!CDT:
!!!CNT:
!!!OPR: Msza
!!!OTL: Agnus
!!!OMV: 006
!!!PDT:
!!!AGN: Sacred; Mass
!!!SMS-siglum: PL-SA
!!!SMS-shelfmark: 153/A IV 3
!!!SMS-shelfwork: 001-006 M
!!!SMS-variant:
!!!SMS-altvar:
!!!NIFC-rismSourceID: 1001035513
!!!NIFC-islandoraID:
!!!URL-pdf-islandora:
!!!URL-scan: https://bc.bdsandomierz.pl/dlibra/publication/1539/edition/1507/content @EN{Scan on Cyfrowa Biblioteka Diecezjalna w Sandomierzu} @PL{Skany w portalu Cyfrowa Biblioteka Diecezjalna w Sandomierzu}
!!!ONB-nifc: UWAGA: części Mszy: 1. Kirie, 2. Gloria, 3. Patrem, 4. Sanctus, 5. Benedictus, 6. Agnus. Uwaga: kontynuacja partii b. fig na str. 22
!!!AIN: 1 bass 2 clrno 1 organ 1 soprn 2 violn
!!!key: D
**kern	**fba	**dynam	**kern	**dynam	**kern	**dynam	**kern	**text	**kern	**text	**kern	**kern
*part7	*part7	*part7	*part6	*part6	*part5	*part5	*part4	*part4	*part3	*part3	*part2	*part1
*staff7	*	*	*staff6	*	*staff5	*	*staff4	*staff4	*staff3	*staff3	*staff2	*staff1
*I"Fundamento	*	*	*I"Violino Secundo	*	*I"Violino Primo	*	*I"Basso	*	*I"Canto	*	*I"Clarino Secundo	*I"Clarino Primo
*I'bc	*	*	*I'V-no II	*	*I'V-no I	*	*I'B.	*	*I'C.	*	*I'Cl-no II	*I'Cl-no I
*Iorgan	*	*	*Ivioln	*	*Ivioln	*	*Ibass	*	*Isoprn	*	*Iclrno	*Iclrno
*ICklav	*	*	*ICstr	*	*ICstr	*	*ICvox	*	*ICvox	*	*ICbras	*ICbras
*clefF4	*	*	*clefG2	*	*clefG2	*	*clefF4	*	*clefC1	*	*clefG2	*clefG2
*	*	*	*	*	*	*	*	*	*	*	*ITrd-1c-2	*ITrd-1c-2
*k[f#c#]	*	*	*k[f#c#]	*	*k[f#c#]	*	*k[f#c#]	*	*k[f#c#]	*	*k[f#c#]	*k[f#c#]
*D:	*	*	*D:	*	*D:	*	*D:	*	*D:	*	*D:	*D:
*M4/4	*	*	*M4/4	*	*M4/4	*	*M4/4	*	*M4/4	*	*M4/4	*M4/4
*met(c)	*	*	*met(c)	*	*met(c)	*	*met(c)	*	*met(c)	*	*met(c)	*met(c)
*2\right	*	*	*2\right	*	*2\right	*	*2\right	*	*2\right	*	*2\right	*2\right
=1	=1	=1	=1	=1	=1	=1	=1	=1	=1	=1	=1	=1
!LO:TX:a:t=Solo	!	!	!LO:TX:a:t=Tarde	!	!LO:TX:a:t=Tarde	!	!	!	!LO:TX:a:t=Tarde	!	!LO:TX:a:t=adagio	!LO:TX:a:t=Tarde
8d\L	.	.	8f#/	.	8dd\	.	1r	.	1r	.	8f#/	8dd\
8d\	.	.	4f#/	.	4dd\	.	.	.	.	.	4f#/	4dd\
8c#\	.	.	.	.	.	.	.	.	.	.	.	.
8c#\J	.	.	[8f#/	.	[8dd\	.	.	.	.	.	8f#/	8dd\
!LO:TX:t=P:problem=mixed beam	!	!	!	!	!	!	!	!	!	!	!	!
8B\L	.	.	8f#/L]	.	16.dd\LL]	.	.	.	.	.	4f#/	4dd\
.	.	.	.	.	32a\JJk	.	.	.	.	.	.	.
8G\	.	.	16.g/L	.	16.b\LL	.	.	.	.	.	.	.
.	.	.	32e/JJk	.	32g\JJk	.	.	.	.	.	.	.
8A\	4:3	.	16.f#/LL	.	16.a/LL	.	.	.	.	.	4r	4r
.	.	.	32d/JJk	.	32f#/JJk	.	.	.	.	.	.	.
8AA/J	.	.	16.e/LL	.	16.g/LL	.	.	.	.	.	.	.
.	.	.	32c#/JJk	.	32e/JJk	.	.	.	.	.	.	.
=2	=2	=2	=2	=2	=2	=2	=2	=2	=2	=2	=2	=2
!	!	!	!LO:TX:t=P:problem=mixed beam	!	!LO:TX:t=P:problem=mixed beam	!	!	!	!	!	!	!
8D\L	.	.	8d/L	.	8f#/L	.	1r	.	1r	.	8r	8r
8D\	.	.	16.dd\L	.	16.ff#\L	.	.	.	.	.	16.dd\LL	16.ff#\LL
.	.	.	32ee\JJk	.	32gg\JJk	.	.	.	.	.	32ee\JJk	32gg\JJk
8F#\	.	.	8ff#\L	.	8aa\L	.	.	.	.	.	8ff#\L	8aa\L
8D\J	.	.	8ff#\J	.	8aa\J	.	.	.	.	.	8ff#\J	8aa\J
4A\	.	.	(16ee'\LL	.	16gg'\LL	.	.	.	.	.	8r	8r
.	.	.	16dd'\	.	16ff#'\	.	.	.	.	.	.	.
!	!	!	!	!	!	!	!	!	!	!	!	!LO:TX:t=P:problem=mixed beam
.	.	.	16cc#'\	.	16ee'\	.	.	.	.	.	8ee\L	8gg\L
.	.	.	16b'\JJ)	.	16dd'\JJ	.	.	.	.	.	.	.
4AA/	.	.	(16a'/LL	.	16cc#'\LL	.	.	.	.	.	8a\	8a/
.	.	.	16g'/	.	16b'\	.	.	.	.	.	.	.
.	.	.	16f#'/	.	16a'\	.	.	.	.	.	8ee\J	8gg\J
.	.	.	16e'/JJ)	.	16g'\JJ	.	.	.	.	.	.	.
!	!	!	!LO:LB:g=original	!	!	!	!	!	!	!	!	!
=3	=3	=3	=3	=3	=3	=3	=3	=3	=3	=3	=3	=3
!	!	!	!	!	!LO:TX:t=P:problem=mixed beam	!	!	!	!	!	!	!
8r	3 -5_	.	8d/L	.	8f#/L	.	1r	.	1r	.	4dd\	4ff#\
8D\L	.	.	8a/J	.	8ccn\J	.	.	.	.	.	.	.
8E\	.	.	4aT/	.	4ccnyt\	.	.	.	.	.	8r	8r
8F#\J	.	.	.	.	.	.	.	.	.	.	16d/LL	16d/LL
.	.	.	.	.	.	.	.	.	.	.	16d/JJ	16d/JJ
8G\L	3 6:5#	.	8g/L	.	8b\L	.	.	.	.	.	4d/	4d/
8E\	.	.	8b/J	.	8ddny\J	.	.	.	.	.	.	.
8F#\	.	.	4bT/	.	4ddT\	.	.	.	.	.	8r	8r
8G#X\J	.	.	.	.	.	.	.	.	.	.	16ee\LL	16ee\LL
.	.	.	.	.	.	.	.	.	.	.	16ee\JJ	16ee\JJ
=4	=4	=4	=4	=4	=4	=4	=4	=4	=4	=4	=4	=4
8A\L	#	.	4a/	.	16.cc#X\LL	.	1r	.	1r	.	4ee\	4ee\
.	.	.	.	.	32gg\K	.	.	.	.	.	.	.
8C#X\	.	.	.	.	16.ff#\	.	.	.	.	.	.	.
.	.	.	.	.	32ee\JJk	.	.	.	.	.	.	.
8D\	.	.	8r	.	16.ff#\LL	.	.	.	.	.	4r	4r
.	.	.	.	.	32cccn\JJk	.	.	.	.	.	.	.
8F#\J	.	.	8dd\	.	16.bb\LL	.	.	.	.	.	.	.
.	.	.	.	.	32aa\JJk	.	.	.	.	.	.	.
!	!	!	!	!	!LO:TX:t=P:problem=mixed beam	!	!	!	!	!	!	!
16.G\LL	.	.	16.dd\LL	.	16.bb\LL	.	.	.	.	.	16r	16r
.	.	.	.	.	.	.	.	.	.	.	16gg\LL	16gg\LL
!	!	!	!	!	!LO:TX:t=P:problem=# below	!	!	!	!	!	!	!
32E\JJk	6	.	32cc#\JJk	.	32cc#X/K	.	.	.	.	.	.	.
16.F#\LL	6	.	16.dd\LL	.	16.dd/	.	.	.	.	.	16.dd\	16ff#\
.	.	.	.	.	.	.	.	.	.	.	.	16ee\JJ
32G\JJk	6	.	32b\JJk	.	32ee/JJk	.	.	.	.	.	32a\JJk	.
!LO:TX:t=P:problem=mixed beam	!	!	!	!	!	!	!	!	!	!	!	!
8A\L	.	.	4cc#\	.	4eeT\	.	.	.	.	.	4a/	4eeT\
8AA/J	.	.	.	.	.	.	.	.	.	.	.	.
=5	=5	=5	=5	=5	=5	=5	=5	=5	=5	=5	=5	=5
!	!	!LO:DY:a:B:t=p&colon;	!	!LO:DY:a	!	!	!	!	!	!	!	!
8D\L	.	p	8dd\	p	16.dd\LL	.	1r	.	1r	.	4f#/	4dd\
.	.	.	.	.	32cccn\JJk	.	.	.	.	.	.	.
8F#\	.	.	4dd\	.	16.bb\LL	.	.	.	.	.	.	.
.	.	.	.	.	32aa\JJk	.	.	.	.	.	.	.
8G\	.	.	.	.	16.bb\LL	.	.	.	.	.	4r	4r
.	.	.	.	.	32ee\K	.	.	.	.	.	.	.
8E\J	.	.	8b\	.	16.ff#\	.	.	.	.	.	.	.
.	.	.	.	.	32gg\JJk	.	.	.	.	.	.	.
!	!	!	!	!LO:DY:a:B:t=f&colon;	!	!	!	!	!	!	!	!
8G\L	.	.	8cc#\	f	16.cc#X\LL	.	.	.	.	.	16r	16r
.	.	.	.	.	.	.	.	.	.	.	16ee\LL	16gg\LL
.	.	.	.	.	32a\K	.	.	.	.	.	.	.
8F#\	.	.	4dd\	.	16.dd\	.	.	.	.	.	16.dd\	16ff#\
.	.	.	.	.	.	.	.	.	.	.	.	16ee\JJ
.	.	.	.	.	32a\JJk	.	.	.	.	.	32a\JJk	.
8G\	.	.	.	.	4eeT\	.	.	.	.	.	4a/	4eeT\
8A\J	.	.	8cc#t\	.	.	.	.	.	.	.	.	.
=6	=6	=6	=6	=6	=6	=6	=6	=6	=6	=6	=6	=6
!LO:TX:t=P:problem=mixed beam	!	!	!	!LO:DY:a:B:t=p&colon;	!	!LO:DY:a	!	!	!	!	!	!
8D/L	.	.	8dd\	p	8dd\	p	1r	.	4r	.	4f#/	4dd\
8d\	.	.	4f#/	.	4dd\	.	.	.	.	.	.	.
8c#\	.	.	.	.	.	.	.	.	8a\	A-	4r	4r
8c#\J	.	.	8f#/	.	[8dd\	.	.	.	8dd\	-gnus	.	.
!LO:TX:t=P:problem=mixed beam	!	!	!	!	!	!	!	!	!	!	!	!
.	.	.	.	.	.	.	.	.	8qqee/	.	.	.
!	!	!	!	!	!LO:LB:g=original	!	!	!	!	!	!	!
8B\L	.	.	8f#/L	.	16.dd\LL]	.	.	.	8dd\L	De-	2r	2r
.	.	.	.	.	32a\K	.	.	.	.	.	.	.
8G\	.	.	16.g/L	.	16.b\	.	.	.	16cc#\L	.	.	.
.	.	.	.	.	.	.	.	.	16b\JJ	.	.	.
.	.	.	32e/JJk	.	32g\JJk	.	.	.	.	.	.	.
8A\	.	.	16.f#/LL	.	16.a/LL	.	.	.	8a\	-i	.	.
.	.	.	32d/JJk	.	32f#/JJk	.	.	.	.	.	.	.
8AA/J	.	.	16.e/LL	.	16.g/LL	.	.	.	8g\	qui	.	.
.	.	.	32c#/JJk	.	32e/JJk	.	.	.	.	.	.	.
=7	=7	=7	=7	=7	=7	=7	=7	=7	=7	=7	=7	=7
8r	.	.	4d/	.	4f#t/	.	1r	.	4f#t/	tol-	1r	1r
8D\L	.	.	.	.	.	.	.	.	.	.	.	.
8F#\	.	.	4r	.	8d/L	.	.	.	8d/	-lis	.	.
8D\J	.	.	.	.	8a/J	.	.	.	8a\	pec-	.	.
8E\L	.	.	8g/L	.	8b\	.	.	.	8b\	-ca-	.	.
8F#\	.	.	8f#/	.	4dd\	.	.	.	4dd\	.	.	.
8G\	.	.	8g/	.	.	.	.	.	.	.	.	.
.	.	.	.	.	8qqcc#/	.	.	.	8qqcc#/	.	.	.
8E\J	.	.	8d/J	.	8b\	.	.	.	8b\	-ta	.	.
!LO:LB:g=original	!	!	!	!	!	!	!	!	!	!	!	!
=8	=8	=8	=8	=8	=8	=8	=8	=8	=8	=8	=8	=8
8d\L	.	.	4gT/	.	4bT\	.	1r	.	4b\	mun-	1r	1r
8D\	.	.	.	.	.	.	.	.	.	.	.	.
8F#\	.	.	4f#/	.	4a\	.	.	.	4a\	-di	.	.
8D\J	.	.	.	.	.	.	.	.	.	.	.	.
8C#/L	.	.	8r	.	8r	.	.	.	4ee\	mi-	.	.
8BB/	.	.	8a/L	.	8ee\L	.	.	.	.	.	.	.
8C#/	.	.	8a/	.	8ee\	.	.	.	4g\	-se-	.	.
8AA/J	.	.	8a/J	.	8ee\J	.	.	.	.	.	.	.
=9	=9	=9	=9	=9	=9	=9	=9	=9	=9	=9	=9	=9
!	!	!	!	!	!	!	!	!	!LO:TX:t=P:problem=mixed beam	!	!	!
4D\	.	.	8a/L	.	8ff#|\L	.	1r	.	8f#/L	-re-	1r	1r
.	.	.	(8b/	.	(8dd\	.	.	.	(8dd\	.	.	.
4E\	4#r	.	8a/	.	8cc#\	.	.	.	8cc#\	.	.	.
.	.	.	8g#X/J)	.	8b\J)	.	.	.	8b\J)	.	.	.
4AA/	.	.	4e/	.	8cc#\L	.	.	.	8cc#\	.	.	.
.	.	.	.	.	8a\	.	.	.	8a\	-re	.	.
4r	.	.	4r	.	8cc#\	.	.	.	8ee\	mi-	.	.
.	.	.	.	.	8dd\J	.	.	.	8ff#\	-se-	.	.
!	!	!	!	!	!	!	!	!	!LO:LB:g=original	!	!	!
=10	=10	=10	=10	=10	=10	=10	=10	=10	=10	=10	=10	=10
8r	.	.	1r	.	4.ee\	.	1r	.	4.gg\	-re-	1r	1r
8E/L	.	.	.	.	.	.	.	.	.	.	.	.
8C#/	.	.	.	.	.	.	.	.	.	.	.	.
.	.	.	.	.	8qdd/	.	.	.	.	.	.	.
8AA/J	.	.	.	.	8cc#\	.	.	.	(16ff#\LL	.	.	.
.	.	.	.	.	.	.	.	.	16ee\JJ)	.	.	.
!LO:TX:t=P:problem=mixed beam	!	!	!	!	!	!	!	!	!	!	!	!
8D\L	.	.	.	.	8dd\L	.	.	.	8ff#\	.	.	.
8G\	.	.	.	.	8b\J	.	.	.	16ee\LL	-re	.	.
.	.	.	.	.	.	.	.	.	16dd\JJ	.	.	.
.	.	.	.	.	.	.	.	.	8qqdd/	.	.	.
8A\	.	.	.	.	8.e/L	.	.	.	4cc#\	no-	.	.
8AA/J	.	.	.	.	.	.	.	.	.	.	.	.
.	.	.	.	.	16e/Jk	.	.	.	.	.	.	.
=11	=11	=11	=11	=11	=11	=11	=11	=11	=11	=11	=11	=11
4D/	.	.	4r	.	4f#/	.	4r	.	4dd\	-bis	1r	1r
4BB/	.	.	8dd\L	.	8ff#\L	.	8B\	A-	4r	.	.	.
.	.	.	8dd\J	.	8ff#\J	.	8B\	-gnus	.	.	.	.
4F#\	.	.	4cc#\	.	4ff#\	.	8A#X\L	De-	2r	.	.	.
.	.	.	.	.	.	.	16B\L	.	.	.	.	.
.	.	.	.	.	.	.	16c#\JJ	.	.	.	.	.
8r	.	.	8r	.	8r	.	8F#\	-i	.	.	.	.
8AA#X/	.	.	8cc#\	.	8ff#\	.	8E\	qui	.	.	.	.
!	!	!	!LO:LB:g=original	!	!	!	!	!	!	!	!	!
=12	=12	=12	=12	=12	=12	=12	=12	=12	=12	=12	=12	=12
8BB/L	.	.	4dd\	.	4ff#\	.	4D\	tol-	1r	.	1r	1r
8C#/	.	.	.	.	.	.	.	.	.	.	.	.
8D/	.	.	8r	.	8r	.	8BB/	-lis	.	.	.	.
8BB/J	.	.	8dd\	.	8ff#\	.	8F#\	pec-	.	.	.	.
4G\	.	.	4b\	.	4ee\	.	8B\	-ca-	.	.	.	.
.	.	.	.	.	.	.	16c#\LL	-ta	.	.	.	.
.	.	.	.	.	.	.	16d\JJ	.	.	.	.	.
4E\	.	.	4b\	.	4ee\	.	8c#\L	mun-	.	.	.	.
.	.	.	.	.	.	.	8B\J	.	.	.	.	.
=13	=13	=13	=13	=13	=13	=13	=13	=13	=13	=13	=13	=13
4F#\	.	.	4a#X/	.	4cc#\	.	4A#X\	-di	1r	.	1r	1r
4D#X\	.	.	4f#/	.	2b\	.	(4B\	mi-	.	.	.	.
4E\	.	.	4g/	.	.	.	4G\)	.	.	.	.	.
4F#\	.	.	4d#X/	.	[4b\	.	4D#X\	-se-	.	.	.	.
=14	=14	=14	=14	=14	=14	=14	=14	=14	=14	=14	=14	=14
4G\	.	.	4e/	.	4b\]	.	4E\	-re-	1r	.	1r	1r
4E#X\	.	.	4g#X/	.	4b\	.	4c#\	-re	.	.	.	.
.	.	.	.	.	.	.	8qB/	.	.	.	.	.
8F#\L	.	.	4c#/	.	8a#X\L	.	8A#X\L	mi-	.	.	.	.
8En\	.	.	.	.	8cc#\	.	16G\L	se-	.	.	.	.
.	.	.	.	.	.	.	16F#\JJ	.	.	.	.	.
8D\	.	.	8f#/L	.	8dd\	.	8B\	-re-	.	.	.	.
8E\J	.	.	8g-X/J	.	8b\J	.	8E\	-re	.	.	.	.
!	!	!	!	!	!LO:LB:g=original	!	!LO:LB:g=original	!	!	!	!	!
=15	=15	=15	=15	=15	=15	=15	=15	=15	=15	=15	=15	=15
4F#\	.	.	4f#/	.	4c#/	.	2F#\	no-	1r	.	1r	1r
4FF#/	.	.	4c#/	.	4a#X/	.	.	.	.	.	.	.
4BB/	.	.	4d/	.	4b/	.	4BB/	-bis	.	.	.	.
4r	.	.	4r	.	4r	.	4r	.	.	.	.	.
!LO:LB:g=original	!	!	!	!	!	!	!	!	!	!	!	!
=16	=16	=16	=16	=16	=16	=16	=16	=16	=16	=16	=16	=16
!	!	!	!LO:TX:a:t=Tutti	!	!LO:TX:a:t=Tutti	!	!	!	!	!	!	!LO:TX:a:t=Tutti
8d\L	.	.	8f#/	.	8dd\	.	4d\	A-	4.dd\	A-	8f#/	8dd\
8d\	.	.	4f#/	.	4dd\	.	.	.	.	.	4f#/	4dd\
8c#\	.	.	.	.	.	.	4c#\	-gnus	.	.	.	.
8c#\J	.	.	[8f#/	.	[8dd\	.	.	.	8dd\	-gnus	8f#/	8dd\
!LO:TX:t=P:problem=mixed beam	!	!	!	!	!	!	!	!	!	!	!LO:TX:t=P:problem=mixed beam	!
8B\L	.	.	8f#/L]	.	16.dd\LL]	.	8B\L	De-	8dd\L	De-	8f#/L	8dd\L
.	.	.	.	.	32a\K	.	.	.	.	.	.	.
.	.	.	.	.	.	.	.	.	.	.	16qqee/LL	16qqgg/LL
.	.	.	.	.	.	.	.	.	.	.	16qqff#/JJ	16qqaa/JJ
8G\	.	.	16.g/L	.	16.b\	.	8G\J	.	16cc#\L	.	8gg\	8bb\
.	.	.	.	.	.	.	.	.	16b\JJ	.	.	.
.	.	.	32e/JJk	.	32g\JJk	.	.	.	.	.	.	.
8A\	.	.	16.f#/LL	.	16.a/LL	.	8A\	-i	8a\	-i	8ff#\	8aa\
.	.	.	32d/JJk	.	32f#/JJk	.	.	.	.	.	.	.
8AA/J	.	.	16.e/LL	.	16.g/LL	.	8AA/	qui	8g\	qui	8ee\J	8gg\J
.	.	.	32c#/JJk	.	32e/JJk	.	.	.	.	.	.	.
!	!	!	!	!	!	!	!	!	!	!	!	!LO:LB:g=original
=17	=17	=17	=17	=17	=17	=17	=17	=17	=17	=17	=17	=17
!LO:TX:t=P:problem=mixed beam	!	!	!LO:TX:t=P:problem=mixed beam	!	!LO:TX:t=P:problem=mixed beam	!	!	!	!	!	!	!
8D\L	.	.	8d/L	.	8f#/L	.	4D\	tol-	4f#/	tol-	16.dd\LL	16.ff#\L
.	.	.	.	.	.	.	.	.	.	.	32a\JJk	32dd\KJ
8DD/	.	.	16.dd\L	.	16.ff#\L	.	.	.	.	.	16.dd\LL	16.ff#\L
.	.	.	32ee\JJk	.	32gg\JJk	.	.	.	.	.	32ee\JJk	32gg\Jk
8FF#/	.	.	8ff#\L	.	8aa\L	.	8D\	-lis	8d/	-lis	8ff#\L	8aa\L
8DD/J	.	.	8ff#\J	.	8aa\J	.	8D\	pec-	8a\	pec-	8ff#\J	8aa\J
4AA/	.	.	(16ee'\LL	.	16gg'\LL	.	8A\	-ca-	8a\	-ca-	2eeT\	2ggT\
.	.	.	16dd'\	.	16ff#'\	.	.	.	.	.	.	.
.	.	.	16cc#'\	.	16ee'\	.	8A\	-ta	8a\	-ta	.	.
.	.	.	16b'\JJ)	.	16dd'\JJ	.	.	.	.	.	.	.
4AA/	.	.	(16a'/LL	.	16cc#'\LL	.	4A\	mun-	4a\	mun-	.	.
.	.	.	16g'/	.	16b'\	.	.	.	.	.	.	.
.	.	.	16f#'/	.	16a'\	.	.	.	.	.	.	.
.	.	.	16e'/JJ)	.	16g'\JJ	.	.	.	.	.	.	.
=18	=18	=18	=18	=18	=18	=18	=18	=18	=18	=18	=18	=18
!	!	!	!	!	!LO:TX:t=P:problem=mixed beam	!	!	!	!	!	!	!
8D\L	.	.	8d/L	.	8f#/L	.	4D\	-di	4a\	-di	4dd\	4ff#\
8D\	.	.	8a/J	.	8ccn\J	.	.	.	.	.	.	.
8E\	.	.	4aT/	.	4ccnyt\	.	8E\	mi-	8ccn\	mi-	8r	8r
8F#\J	.	.	.	.	.	.	8F#\	-se-	8cc\	-se-	16d/LL	16d/LL
.	.	.	.	.	.	.	.	.	.	.	16d/JJ	16d/JJ
8G\L	.	.	8g/L	.	8b\L	.	8G\L	-re-	4b\	-re-	4d/	4d/
8E\	.	.	8b/J	.	8ddny\J	.	8E\	.	.	.	.	.
8F#\	.	.	4bT\	.	4ddT\	.	8F#\	.	4dd\	.	8r	8r
8G#X\J	.	.	.	.	.	.	8G#X\J	.	.	.	16ee\LL	16ee\LL
.	.	.	.	.	.	.	.	.	.	.	16ee\JJ	16ee\JJ
!	!	!	!	!	!	!	!	!	!LO:LB:g=original	!	!	!
=19	=19	=19	=19	=19	=19	=19	=19	=19	=19	=19	=19	=19
8A\L	.	.	8e/	.	16.cc#X\LL	.	8A\L	.	8cc#\	-re	4ee\	4ee\
.	.	.	.	.	32gg\JJk	.	.	.	.	.	.	.
8C#X\	.	.	4a/	.	16.ff#\LL	.	8C#\	.	4a\	mi-	.	.
.	.	.	.	.	32ee\JJk	.	.	.	.	.	.	.
8D\	.	.	.	.	16.ff#\LL	.	8D\	.	.	.	4r	4r
.	.	.	.	.	32cccn\JJk	.	.	.	.	.	.	.
8F#\J	.	.	[8dd\	.	16.bb\LL	.	8F#\J	.	8dd\	-se-	.	.
.	.	.	.	.	32aa\JJk	.	.	.	.	.	.	.
!	!	!	!	!	!LO:TX:t=P:problem=mixed beam	!	!	!	!	!	!	!
16.Gn\LL	.	.	16.dd\LL]	.	16.bb\LL	.	8G\	.	8b\	-re-	16r	16r
.	.	.	.	.	.	.	.	.	.	.	16ee\LL	16gg\LL
32E\JJk	.	.	32cc#\JJk	.	32cc#X/JJk	.	.	.	.	.	.	.
16.F#\LL	.	.	16.dd\LL	.	16.dd\LL	.	8E\	-re	8ee\	-re	16.dd\	16ff#\
.	.	.	.	.	.	.	.	.	.	.	.	16ee\JJ
32G\JJk	.	.	32b\JJk	.	32ee\JJk	.	.	.	.	.	32a\JJk	.
!LO:TX:t=P:problem=mixed beam	!	!	!	!	!	!	!	!	!	!	!	!
8A\L	.	.	4cc#t\	.	4eeT\	.	4A\	no-	4cc#\	no-	4a/	4eeT\
8AA/J	.	.	.	.	.	.	.	.	.	.	.	.
!	!	!	!LO:LB:g=original	!	!	!	!	!	!	!	!	!
=20	=20	=20	=20	=20	=20	=20	=20	=20	=20	=20	=20	=20
!	!	!	!	!	!	!LO:DY:a	!	!	!	!	!	!
8D\L	.	.	8dd\	.	16.dd\LL	p	4D\	-bis	4dd\	-bis	4f#/	4dd\
.	.	.	.	.	32cccn\K	.	.	.	.	.	.	.
8F#\	.	.	4dd\	.	16.bb\	.	.	.	.	.	.	.
.	.	.	.	.	32aa\JJk	.	.	.	.	.	.	.
8G\	.	.	.	.	16.bb\LL	.	8G\	mi-	8b\	mi-	4r	4r
.	.	.	.	.	32ee\K	.	.	.	.	.	.	.
8E\J	.	.	8b\	.	16.ff#\	.	8E\	-se-	8b\	-se-	.	.
.	.	.	.	.	32gg\JJk	.	.	.	.	.	.	.
!	!	!	!	!	!	!	!LO:LB:g=original	!	!	!	!	!
8A\L	.	.	8cc#\	.	16.cc#X\LL	.	8A\	-re-	8cc#\	-re-	16r	16r
.	.	.	.	.	.	.	.	.	.	.	16ee\LL	16gg\LL
.	.	.	.	.	32a\K	.	.	.	.	.	.	.
8F#\	.	.	4dd\	.	16.dd\	.	8F#\	-re	8dd\	-re	16dd\	16ff#\
.	.	.	.	.	.	.	.	.	.	.	16a\JJ	16ee\JJ
.	.	.	.	.	32a\JJk	.	.	.	.	.	.	.
8G\	.	.	.	.	4eeT\	.	(8G\L	no-	(8dd\L	no-	4a/	4eeT\
8A\J	.	.	8cc#\	.	.	.	8A\J)	.	8cc#\J)	.	.	.
!	!	!	!	!	!LO:LB:g=original	!	!	!	!	!	!	!
=21	=21	=21	=21	=21	=21	=21	=21	=21	=21	=21	=21	=21
*	*	*	*^	*	*	*	*	*	*	*	*	*
4D\	.	.	4f#/ 4ff#	4A\	.	4dd\	.	4D\	-bis	4dd\	-bis	4f#/	4dd\
4r	.	.	4r	4ryy	.	4r	.	4r	.	4r	.	4r	4r
!LO:TX:a:t=Dona ut kirie Allo	!	!	!LO:TX:a:t=Dona Ut kirie Allo&colon;	!	!	!	!	!LO:TX:a:t=Dona Ut kirie Allo	!	!	!	!	!LO:TX:a:t=Dona ut kirie Allo
2r	.	.	2r	2ryy	.	2r	.	2r	.	2r	.	2r	2r
*	*	*	*v	*v	*	*	*	*	*	*	*	*	*
=:||:;	=:||:;	=:||:;	=:||:;	=:||:;	=:||:;	=:||:;	=:||:;	=:||:;	=:||:;	=:||:;	=:||:;	=:||:;
*-	*-	*-	*-	*-	*-	*-	*-	*-	*-	*-	*-	*-
!!!RDF**kern: | = vertical stroke
!!!RDF**kern: < = below
!!!RDF**kern: > = above
!!!system-decoration: [(s1,s2)][(s3,s4)][(s5,s6)][(s7)]
!!!ENC: Andrzej Gręziak
!!!END: 2020-12-11
!!!ENC: Urszula Świątek
!!!END: 2022-03-25
